icons/tokens/0xB987D48Ed8f2C468D52D6405624EADBa5e76d723/logo.svg

<svg width="32" height="32" viewBox="0 0 32 32" fill="none" xmlns="http://www.w3.org/2000/svg">
<path fill-rule="evenodd" clip-rule="evenodd" d="M32 16C32 7.17152 24.8285 0 16 0C7.17152 0 0 7.17152 0 16C0 24.8285 7.17152 32 16 32C24.8285 32 32 24.8285 32 16Z" fill="white"/>
<path fill-rule="evenodd" clip-rule="evenodd" d="M13.0816 26.1949H18.9184V24.2173H13.0816V26.1949Z" fill="black"/>
<path fill-rule="evenodd" clip-rule="evenodd" d="M11.3747 22.8989H20.6253V20.9213H11.3747V22.8989Z" fill="black"/>
<path fill-rule="evenodd" clip-rule="evenodd" d="M11.071 15.433C11.2003 17.2842 12.0934 18.2899 13.1258 18.9005C14.1581 19.511 15.3302 19.7264 16.4528 19.7008C17.5754 19.6749 18.649 19.4077 19.4365 18.8592C20.224 18.311 20.7254 17.4813 20.8778 16.5952C21.0304 15.7091 20.8333 14.767 20.3946 14.056C19.9558 13.3446 19.2752 12.8643 18.5392 12.4989C17.8032 12.1331 17.0122 11.8819 16.2768 11.6304C15.5414 11.3789 14.8618 11.1277 14.4304 10.752C13.999 10.3763 13.8154 9.87649 13.8688 9.39137C13.9222 8.90625 14.2128 8.43585 14.7056 8.14209C15.1987 7.84865 15.8941 7.73217 16.687 7.87425C17.48 8.01633 18.3706 8.41665 18.5133 10.0067H20.9146C20.7619 7.40257 19.2899 6.52737 17.9667 6.11009C16.6432 5.69249 15.4685 5.73249 14.4685 6.05569C13.4688 6.37857 12.6438 6.98465 12.1501 7.70785C11.6566 8.43073 11.4947 9.27073 11.5763 10.0246C11.6582 10.7786 11.9837 11.4461 12.5485 12.0019C13.1133 12.5578 13.9171 13.0019 14.8624 13.359C15.8074 13.7158 16.8934 13.9859 17.568 14.3834C18.2429 14.7808 18.5066 15.3056 18.5517 15.841C18.5965 16.3766 18.423 16.9229 17.9222 17.3174C17.4214 17.712 16.5933 17.9549 15.6237 17.793C14.6538 17.631 13.5424 17.064 13.4582 15.433H11.071Z" fill="black"/>
</svg>

<svg fill="none" viewBox="0 0 32 32"><path fill="#fff" fill-rule="evenodd" d="M32 16c0-8.828-7.172-16-16-16S0 7.172 0 16s7.172 16 16 16 16-7.172 16-16z" clip-rule="evenodd"/><path fill="#000" fill-rule="evenodd" d="M13.082 26.195h5.836v-1.978h-5.836v1.978zm-1.707-3.296h9.25V20.92h-9.25v1.98zm-.304-7.466c.13 1.851 1.022 2.857 2.055 3.468 1.032.61 2.204.825 3.327.8 1.122-.026 2.196-.293 2.983-.842a3.481 3.481 0 001.442-2.264 3.743 3.743 0 00-.483-2.539c-.44-.711-1.12-1.192-1.856-1.557-.736-.366-1.527-.617-2.262-.869-.736-.251-1.415-.502-1.847-.878-.431-.376-.615-.876-.561-1.36.053-.486.344-.956.837-1.25.493-.293 1.188-.41 1.981-.268.793.142 1.684.543 1.826 2.133h2.402c-.153-2.604-1.625-3.48-2.948-3.897-1.324-.418-2.498-.378-3.498-.054-1 .323-1.825.929-2.319 1.652a3.46 3.46 0 00-.574 2.317c.082.754.408 1.421.973 1.977.564.556 1.368 1 2.313 1.357.945.357 2.031.627 2.706 1.024.675.398.939.923.984 1.458.044.536-.129 1.082-.63 1.476-.5.395-1.329.638-2.298.476-.97-.162-2.082-.729-2.166-2.36h-2.387z" clip-rule="evenodd"/></svg>
